X:1
T: Mr. Patrick Duff Junior's Strathspey
C:
P: written as a 40 bar strathspey
R:Strathspey
Q: 128
K:Dm
M:4/4
L:1/16
f2|:FF3 F3G AF3 F4|A3c c3A c4 cf3|FF3 F3G AF3 F4|A3d d3c d4 df3|
FF3 F3G AF3 F4|A3c c3A c4 cd3|f3g a3g f3c A3F|A3d d3c d4 d2e2|
f3g a3g f3c A3F|Ac3 c3A c4 cd3|f3g a3g f3c A3F|A3d d3c d4 de3|
f3g a3g f3c A3F|Ac3 c3A c4 c2de|f3a g3a f3c A3F|A3d d3c d3e f3c:|
f3g a3g f3c A3F|Ac3 c3A c4 cd3|f3g a3g f3c A3F|A3d d3c d4 de3|
f3g a3g f3c A3F|Ac3 c3A c4 c2de|f3a g3a f3c A3F|A3d d3c d4 d2||
